icons/general-loader-2-filled.svg

<svg viewBox="0 0 24 24"><path fill="currentColor" fill-rule="evenodd" d="M18 2.4a3.6 3.6 0 0 1 3.6 3.6v12a3.6 3.6 0 0 1-3.6 3.6h-12a3.6 3.6 0 0 1-3.6-3.6v-12a3.6 3.6 0 0 1 3.6-3.6zm-4.5 2.5a1 1 0 1 0-2 0v2.5a1 1 0 1 0 2 0zm-5.2.7a1 1 0 1 0-1.5 1.4l2.2 2.4a1 1 0 0 0 1.5-1.4zm8.6 2.6a1 1 0 0 0-1.5-1.3l-1.1 1.1a1 1 0 0 0 1.5 1.4zm-11.4 2.4a1 1 0 1 0 0 2h3.1a1 1 0 0 0 0-2zm10.6 0a1 1 0 1 0 0 2h1.4a1 1 0 0 0 0-2zm-.3 3.1a1 1 0 1 0-1.5 1.4l1 1.2a1 1 0 1 0 1.6-1.4zm-5.3 1.4a1 1 0 1 0-1.5-1.4l-2.2 2.4a1 1 0 0 0 1.4 1.4zm3 .5a1 1 0 0 0-2 0v3.4a1 1 0 1 0 2 0z" clip-rule="evenodd"/></svg>

<svg viewBox="0 0 24 24"><path fill="currentColor" fill-rule="evenodd" d="M18 2.4A3.6 3.6 0 0 1 21.6 6v12a3.6 3.6 0 0 1-3.6 3.6H6A3.6 3.6 0 0 1 2.4 18V6A3.6 3.6 0 0 1 6 2.4zm-4.5 2.5a1 1 0 1 0-2 0v2.5a1 1 0 1 0 2 0zm-5.2.7A1 1 0 1 0 6.8 7L9 9.4A1 1 0 0 0 10.5 8zm8.6 2.6A1 1 0 0 0 15.4 7l-1.1 1a1 1 0 0 0 1.5 1.4zM5.5 10.6a1 1 0 1 0 0 2h3.1a1 1 0 0 0 0-2zm10.6 0a1 1 0 1 0 0 2h1.4a1 1 0 0 0 0-2zm-.3 3.1a1 1 0 1 0-1.5 1.4l1 1.2a1 1 0 1 0 1.6-1.4zm-5.3 1.4A1 1 0 1 0 9 13.7l-2.2 2.4a1 1 0 0 0 1.4 1.4zm3 .5a1 1 0 0 0-2 0V19a1 1 0 1 0 2 0z" clip-rule="evenodd"/></svg>
